X:230
T:Bath Waltz, aka. CJF.230
R:Waltz
S:C.J.Fox MS, 1829/33, Beverley,E.Yorks.
N:At the end, in the stave is “D.Capo – CJFox”. The first
N:two sections are similar to the lovely Bath Waltz in the
N:John Clare collection. The last section does not scan. – PJH.
B:Kidson Coll.Mitchell Lib.M1805
O:England
A:East Yorkshire
Z:vmp.P J Headford 2000 & 2008
M:3/8
L:1/16
Q:3/8=60
K:G
“p”(D2B2).G2|(D2B2).G2|{d2}c4AF|(GA).B.G D2|\
(D2B2).G2|(D2B2).G2|{d}c4AF|G6:|!
|:” f”d2defg|d2d2d2|B2BGce|d^cde d2|\
.d2(de)fg|d2d2d2|B2BdcA|{A2}G6:|!
K:C
|:”p” (3(ccc) c2e2|g2e2c2|cBAGAB|\
cdec G2|(3(ccc) c2e2|g2e2c2|cBAGAB|c6:|!
|:” f”ec|(cB)BGBd|dccGce|eddGdf|fe^deec|\
cBBGBd|dccGce|defdcB|B2c2z:|

